searx/static/themes/simple/img/favicon.svg

<svg xmlns="http://www.w3.org/2000/svg" width="1000" height="1000" fill="none" viewBox="0 0 1000 1000"><path fill="#fff" stroke="#fff" d="M887.381 969.26c-8.735-56.977-48.879-105.048-75.732-131.404l.549-.815c9.358 4.047 21.759 8.83 38.249 11.299-2.792-3.979-9.723-12.356-17.353-21.182-8.281-9.578-17.343-19.64-22.731-25.095-2.576-2.51-4.531-5.48-5.84-7.812a42 42 0 0 1-1.484-2.905 30 30 0 0 1-.496-1.141l-.006-.017-.003-.005-.403-1.031 1.04.378c30.426 11.057 85.881 24.674 122.376 23.982-86.18-65.628-170.816-172.104-199.948-211.213l-.944-1.268 1.501.494c4.843 1.593 12.074 3.422 18.097 4.686 3.011.632 5.708 1.121 7.647 1.368.934.119 1.674.179 2.182.177-37.901-40.104-134.111-160.663-159.226-193.339-62.812-81.723-119.676-111.957-160.844-130.761-20.562-9.391-37.326-15.975-48.91-24.716-5.81-4.383-10.343-9.324-13.42-15.457C368.605 237.352 367 230.06 367 221c0-21.091 11.942-38.253 30.514-52.096 18.568-13.839 43.819-24.407 70.594-32.321 52.681-15.57 111.409-20.91 137.152-20.603-22.09-21.777-40.536-37.377-68.681-47.583C508.039 58.048 469.485 53.23 407 53.23h-.126l-.111-.06c-10.812-5.841-18.334-11.717-30.856-16.184C363.416 32.53 345.97 29.5 315.5 29.5c-68.742 0-135.481 34.81-165.765 87.828 7.528-3.748 15.268-7.352 25.242-7.827l1.218-.059-.828.897c-8.962 9.709-28.439 37.92-46.252 67.233-8.902 14.65-17.38 29.559-23.911 42.551-6.13 12.195-10.52 22.65-11.96 29.606 1.782-1.502 3.612-3.122 5.503-4.791 2.265-2 4.615-4.068 7.061-6.075 4.889-4.011 10.181-7.795 15.993-10.322l1.35-.587-.713 1.288c-26.857 48.475-48.523 121.945-48.932 174.257 4.397-5.828 8.48-11.54 12.393-17.042 4.18-5.875 8.173-11.512 12.155-16.779l1.082-1.432-.186 1.784c-10.05 96.714 8.765 169.184 62.207 221.945-1.668-8.18-3.493-24.037-4.718-39.372-.656-8.225-1.142-16.312-1.337-23.002-.195-6.671-.105-12.007.407-14.695l.36-1.893.606 1.83c21.413 64.771 55.061 132.551 108.523 186.935-.019-21.01-.525-27.447-1.993-38.211l-.226-1.65 1.097 1.254c27.637 31.586 75.225 77.749 118.212 100.042-11.952-18.88-19.672-35.43-24.068-50.573l-.458-1.575 1.258 1.051c37.529 31.352 70.268 56.927 95.692 105.85.285-25.048 5.85-43.851 14.133-56.49C477.152 748.493 488.545 742 500 742c6.664 0 14.421 3.836 22.44 9.344 8.039 5.521 16.436 12.79 24.39 19.78 16.568 14.56 34.106 41.626 41.627 58.674 9.177 20.802 18.088 30.509 26.882 38.388 1.396-2.953 3.016-7.354 7.25-13.47l.394-.571.417.555c2.233 2.977 4.956 6.795 7.979 11.005 3.025 4.213 6.354 8.825 9.804 13.401 6.704 8.894 13.839 17.621 20.073 23.028.937-2.858 2.004-6.331 3.276-9.687 1.379-3.636 3.027-7.196 5.077-9.759l.495-.62.346.714c1.335 2.758 4.184 6.807 7.959 11.463 3.768 4.646 8.435 9.867 13.379 14.961 4.945 5.094 10.163 10.056 15.033 14.185 4.566 3.87 8.805 6.991 12.215 8.808.177-3.806.555-8.331 1.056-12.437.533-4.375 1.208-8.329 1.935-10.426l.312-.898.563.766c.666.905 2.122 2.367 4.232 4.267 2.099 1.89 4.815 4.187 7.973 6.756 6.317 5.136 14.392 11.348 22.812 17.546 8.42 6.199 17.181 12.382 24.872 17.459 7.131 4.708 13.316 8.448 17.453 10.379-1.866-7.056-3.726-16.186-5.154-24.427-1.496-8.633-2.528-16.339-2.59-19.674l-.019-1.011.815.598c24.424 17.925 52.99 34.08 94.085 48.163Z"/></svg>

<svg width="1000" height="1000" viewBox="0 0 1000 1000" fill="none" xmlns="http://www.w3.org/2000/svg">
<path d="M887.381 969.26C878.646 912.283 838.502 864.212 811.649 837.856L812.198 837.041C821.556 841.088 833.957 845.871 850.447 848.34C847.655 844.361 840.724 835.984 833.094 827.158C824.813 817.58 815.751 807.518 810.363 802.063C807.787 799.553 805.832 796.583 804.523 794.251C803.868 793.082 803.372 792.068 803.039 791.346C802.873 790.985 802.747 790.695 802.663 790.496C802.621 790.396 802.589 790.319 802.567 790.266C802.557 790.239 802.549 790.219 802.543 790.205C802.54 790.198 802.539 790.192 802.537 790.188L802.534 790.183L802.131 789.152L803.171 789.53C833.597 800.587 889.052 814.204 925.547 813.512C839.367 747.884 754.731 641.408 725.599 602.299L724.655 601.031L726.156 601.525C730.999 603.118 738.23 604.947 744.253 606.211C747.264 606.843 749.961 607.332 751.9 607.579C752.834 607.698 753.574 607.758 754.082 607.756C716.181 567.652 619.971 447.093 594.856 414.417C532.044 332.694 475.18 302.46 434.012 283.656C413.45 274.265 396.686 267.681 385.102 258.94C379.292 254.557 374.759 249.616 371.682 243.483C368.605 237.352 367 230.06 367 221C367 199.909 378.942 182.747 397.514 168.904C416.082 155.065 441.333 144.497 468.108 136.583C520.789 121.013 579.517 115.673 605.26 115.98C583.17 94.2029 564.724 78.6031 536.579 68.3975C508.039 58.0484 469.485 53.2305 407 53.2305H406.874L406.763 53.1709C395.951 47.3288 388.429 41.4529 375.907 36.9863C363.416 32.5304 345.97 29.5 315.5 29.5C246.758 29.5 180.019 64.3093 149.735 117.328C157.263 113.58 165.003 109.976 174.977 109.501L176.195 109.442L175.367 110.339C166.405 120.048 146.928 148.259 129.115 177.572C120.213 192.222 111.735 207.131 105.204 220.123C99.0737 232.318 94.6848 242.773 93.2432 249.729C95.0264 248.227 96.8564 246.607 98.7471 244.938C101.012 242.938 103.362 240.87 105.808 238.863C110.697 234.852 115.989 231.068 121.801 228.541L123.151 227.954L122.438 229.242C95.5813 277.717 73.9155 351.187 73.5059 403.499C77.9029 397.671 81.9853 391.959 85.8994 386.457C90.0793 380.582 94.0722 374.945 98.0537 369.678L99.1357 368.246L98.9502 370.03C88.9007 466.744 107.715 539.214 161.157 591.975C159.489 583.795 157.664 567.938 156.439 552.603C155.783 544.378 155.297 536.291 155.102 529.601C154.907 522.93 154.997 517.594 155.509 514.906L155.869 513.013L156.475 514.843C177.888 579.614 211.536 647.394 264.998 701.778C264.979 680.768 264.473 674.331 263.005 663.567L262.779 661.917L263.876 663.171C291.513 694.757 339.101 740.92 382.088 763.213C370.136 744.333 362.416 727.783 358.02 712.64L357.562 711.065L358.82 712.116C396.349 743.468 429.088 769.043 454.512 817.966C454.797 792.918 460.362 774.115 468.645 761.476C477.152 748.493 488.545 742 500 742C506.664 742 514.421 745.836 522.44 751.344C530.479 756.865 538.876 764.134 546.83 771.124C563.398 785.684 580.936 812.75 588.457 829.798C597.634 850.6 606.545 860.307 615.339 868.186C616.735 865.233 618.355 860.832 622.589 854.716L622.983 854.145L623.4 854.7C625.633 857.677 628.356 861.495 631.379 865.705C634.404 869.918 637.733 874.53 641.183 879.106C647.887 888 655.022 896.727 661.256 902.134C662.193 899.276 663.26 895.803 664.532 892.447C665.911 888.811 667.559 885.251 669.609 882.688L670.104 882.068L670.45 882.782C671.785 885.54 674.634 889.589 678.409 894.245C682.177 898.891 686.844 904.112 691.788 909.206C696.733 914.3 701.951 919.262 706.821 923.391C711.387 927.261 715.626 930.382 719.036 932.199C719.213 928.393 719.591 923.868 720.092 919.762C720.625 915.387 721.3 911.433 722.027 909.336L722.339 908.438L722.902 909.204C723.568 910.109 725.024 911.571 727.134 913.471C729.233 915.361 731.949 917.658 735.107 920.227C741.424 925.363 749.499 931.575 757.919 937.773C766.339 943.972 775.1 950.155 782.791 955.232C789.922 959.94 796.107 963.68 800.244 965.611C798.378 958.555 796.518 949.425 795.09 941.184C793.594 932.551 792.562 924.845 792.5 921.51L792.481 920.499L793.296 921.097C817.72 939.022 846.286 955.177 887.381 969.26Z" fill="white" stroke="white"/>
</svg>
